images/34656.svg

<?xml version="1.0" encoding="UTF-8"?>
<svg xmlns="http://www.w3.org/2000/svg" xmlns:xlink="http://www.w3.org/1999/xlink" width="300pt" height="300pt" viewBox="0 0 300 300" version="1.1">
<defs>
<g>
<symbol overflow="visible" id="glyph0-0">
<path style="stroke:none;" d="M 0.546875 1.9375 L 0.546875 -7.75 L 6.046875 -7.75 L 6.046875 1.9375 Z M 1.171875 1.328125 L 5.4375 1.328125 L 5.4375 -7.140625 L 1.171875 -7.140625 Z M 1.171875 1.328125 "/>
</symbol>
<symbol overflow="visible" id="glyph0-1">
<path style="stroke:none;" d="M 7.078125 -7.40625 L 7.078125 -6.25 C 6.710938 -6.59375 6.320312 -6.847656 5.90625 -7.015625 C 5.5 -7.179688 5.0625 -7.265625 4.59375 -7.265625 C 3.675781 -7.265625 2.972656 -6.984375 2.484375 -6.421875 C 2.003906 -5.867188 1.765625 -5.0625 1.765625 -4 C 1.765625 -2.945312 2.003906 -2.140625 2.484375 -1.578125 C 2.972656 -1.015625 3.675781 -0.734375 4.59375 -0.734375 C 5.0625 -0.734375 5.5 -0.816406 5.90625 -0.984375 C 6.320312 -1.148438 6.710938 -1.40625 7.078125 -1.75 L 7.078125 -0.625 C 6.703125 -0.363281 6.300781 -0.164062 5.875 -0.03125 C 5.457031 0.09375 5.007812 0.15625 4.53125 0.15625 C 3.320312 0.15625 2.367188 -0.210938 1.671875 -0.953125 C 0.972656 -1.703125 0.625 -2.71875 0.625 -4 C 0.625 -5.289062 0.972656 -6.304688 1.671875 -7.046875 C 2.367188 -7.796875 3.320312 -8.171875 4.53125 -8.171875 C 5.007812 -8.171875 5.460938 -8.101562 5.890625 -7.96875 C 6.316406 -7.84375 6.710938 -7.65625 7.078125 -7.40625 Z M 7.078125 -7.40625 "/>
</symbol>
<symbol overflow="visible" id="glyph0-2">
<path style="stroke:none;" d="M 1.03125 -8.359375 L 2.03125 -8.359375 L 2.03125 0 L 1.03125 0 Z M 1.03125 -8.359375 "/>
</symbol>
<symbol overflow="visible" id="glyph0-3">
<path style="stroke:none;" d="M 1.078125 -8.015625 L 2.546875 -8.015625 L 6.09375 -1.3125 L 6.09375 -8.015625 L 7.15625 -8.015625 L 7.15625 0 L 5.6875 0 L 2.125 -6.703125 L 2.125 0 L 1.078125 0 Z M 1.078125 -8.015625 "/>
</symbol>
<symbol overflow="visible" id="glyph0-4">
<path style="stroke:none;" d="M 1.078125 -8.015625 L 2.171875 -8.015625 L 2.171875 -4.734375 L 6.109375 -4.734375 L 6.109375 -8.015625 L 7.1875 -8.015625 L 7.1875 0 L 6.109375 0 L 6.109375 -3.8125 L 2.171875 -3.8125 L 2.171875 0 L 1.078125 0 Z M 1.078125 -8.015625 "/>
</symbol>
<symbol overflow="visible" id="glyph0-5">
<path style="stroke:none;" d="M 4.328125 -7.28125 C 3.546875 -7.28125 2.921875 -6.984375 2.453125 -6.390625 C 1.992188 -5.804688 1.765625 -5.007812 1.765625 -4 C 1.765625 -2.988281 1.992188 -2.1875 2.453125 -1.59375 C 2.921875 -1.007812 3.546875 -0.71875 4.328125 -0.71875 C 5.117188 -0.71875 5.742188 -1.007812 6.203125 -1.59375 C 6.660156 -2.1875 6.890625 -2.988281 6.890625 -4 C 6.890625 -5.007812 6.660156 -5.804688 6.203125 -6.390625 C 5.742188 -6.984375 5.117188 -7.28125 4.328125 -7.28125 Z M 4.328125 -8.171875 C 5.453125 -8.171875 6.351562 -7.789062 7.03125 -7.03125 C 7.707031 -6.28125 8.046875 -5.269531 8.046875 -4 C 8.046875 -2.738281 7.707031 -1.726562 7.03125 -0.96875 C 6.351562 -0.21875 5.453125 0.15625 4.328125 0.15625 C 3.203125 0.15625 2.300781 -0.21875 1.625 -0.96875 C 0.957031 -1.71875 0.625 -2.726562 0.625 -4 C 0.625 -5.269531 0.957031 -6.28125 1.625 -7.03125 C 2.300781 -7.789062 3.203125 -8.171875 4.328125 -8.171875 Z M 4.328125 -8.171875 "/>
</symbol>
</g>
</defs>
<g id="surface16673">
<rect x="0" y="0" width="300" height="300" style="fill:rgb(100%,100%,100%);fill-opacity:1;stroke:none;"/>
<path style="fill:none;stroke-width:1.2;stroke-linecap:butt;stroke-linejoin:miter;stroke:rgb(0%,80%,0%);stroke-opacity:1;stroke-miterlimit:10;" d="M 35.25 153.382812 L 48.277344 148.539062 "/>
<path style="fill:none;stroke-width:1.2;stroke-linecap:butt;stroke-linejoin:miter;stroke:rgb(0%,0%,0%);stroke-opacity:1;stroke-miterlimit:10;" d="M 48.277344 148.539062 L 61.304688 143.691406 "/>
<path style=" stroke:none;fill-rule:nonzero;fill:rgb(100%,100%,100%);fill-opacity:1;" d="M 24.25 146.882812 L 35.25 146.882812 L 35.25 159.882812 L 24.25 159.882812 Z M 24.25 146.882812 "/>
<g style="fill:rgb(0%,80%,0%);fill-opacity:1;">
  <use xlink:href="#glyph0-1" x="24.25" y="156.78418"/>
  <use xlink:href="#glyph0-2" x="31.701172" y="156.78418"/>
</g>
<path style="fill:none;stroke-width:1.2;stroke-linecap:butt;stroke-linejoin:miter;stroke:rgb(0%,0%,0%);stroke-opacity:1;stroke-miterlimit:10;" d="M 61.304688 143.691406 L 65.941406 116.28125 "/>
<path style="fill:none;stroke-width:1.2;stroke-linecap:butt;stroke-linejoin:miter;stroke:rgb(0%,0%,0%);stroke-opacity:1;stroke-miterlimit:10;" d="M 68.21875 142.042969 L 71.925781 120.113281 "/>
<path style="fill:none;stroke-width:1.2;stroke-linecap:butt;stroke-linejoin:miter;stroke:rgb(0%,0%,0%);stroke-opacity:1;stroke-miterlimit:10;" d="M 82.726562 161.410156 L 61.304688 143.691406 "/>
<path style="fill:none;stroke-width:1.2;stroke-linecap:butt;stroke-linejoin:miter;stroke:rgb(0%,0%,0%);stroke-opacity:1;stroke-miterlimit:10;" d="M 65.941406 116.28125 L 91.996094 106.589844 "/>
<path style="fill:none;stroke-width:1.2;stroke-linecap:butt;stroke-linejoin:miter;stroke:rgb(0%,0%,0%);stroke-opacity:1;stroke-miterlimit:10;" d="M 91.996094 106.589844 L 113.417969 124.308594 "/>
<path style="fill:none;stroke-width:1.2;stroke-linecap:butt;stroke-linejoin:miter;stroke:rgb(0%,0%,0%);stroke-opacity:1;stroke-miterlimit:10;" d="M 89.96875 113.402344 L 107.109375 127.574219 "/>
<path style="fill:none;stroke-width:1.2;stroke-linecap:butt;stroke-linejoin:miter;stroke:rgb(0%,0%,0%);stroke-opacity:1;stroke-miterlimit:10;" d="M 113.417969 124.308594 L 108.785156 151.71875 "/>
<path style="fill:none;stroke-width:1.2;stroke-linecap:butt;stroke-linejoin:miter;stroke:rgb(0%,0%,0%);stroke-opacity:1;stroke-miterlimit:10;" d="M 113.417969 124.308594 L 139.476562 114.617188 "/>
<path style="fill:none;stroke-width:1.2;stroke-linecap:butt;stroke-linejoin:miter;stroke:rgb(0%,0%,0%);stroke-opacity:1;stroke-miterlimit:10;" d="M 108.785156 151.71875 L 82.726562 161.410156 "/>
<path style="fill:none;stroke-width:1.2;stroke-linecap:butt;stroke-linejoin:miter;stroke:rgb(0%,0%,0%);stroke-opacity:1;stroke-miterlimit:10;" d="M 103.898438 146.558594 L 83.054688 154.3125 "/>
<path style="fill:none;stroke-width:1.2;stroke-linecap:butt;stroke-linejoin:miter;stroke:rgb(0%,0%,0%);stroke-opacity:1;stroke-miterlimit:10;" d="M 139.476562 114.617188 L 143.214844 101.226562 "/>
<path style="fill:none;stroke-width:1.2;stroke-linecap:butt;stroke-linejoin:miter;stroke:rgb(0%,0%,100%);stroke-opacity:1;stroke-miterlimit:10;" d="M 143.214844 101.226562 L 146.949219 87.839844 "/>
<path style="fill:none;stroke-width:1.2;stroke-linecap:butt;stroke-linejoin:miter;stroke:rgb(0%,0%,0%);stroke-opacity:1;stroke-miterlimit:10;" d="M 146.523438 113.695312 L 149.515625 102.984375 "/>
<path style="fill:none;stroke-width:1.2;stroke-linecap:butt;stroke-linejoin:miter;stroke:rgb(0%,0%,100%);stroke-opacity:1;stroke-miterlimit:10;" d="M 149.515625 102.984375 L 152.503906 92.273438 "/>
<path style="fill:none;stroke-width:1.2;stroke-linecap:butt;stroke-linejoin:miter;stroke:rgb(0%,0%,0%);stroke-opacity:1;stroke-miterlimit:10;" d="M 162.632812 130 L 139.476562 114.617188 "/>
<path style="fill:none;stroke-width:1.2;stroke-linecap:butt;stroke-linejoin:miter;stroke:rgb(0%,0%,100%);stroke-opacity:1;stroke-miterlimit:10;" d="M 146.949219 87.839844 L 174.726562 86.671875 "/>
<path style=" stroke:none;fill-rule:nonzero;fill:rgb(100%,100%,100%);fill-opacity:1;" d="M 142.949219 81.339844 L 150.949219 81.339844 L 150.949219 94.339844 L 142.949219 94.339844 Z M 142.949219 81.339844 "/>
<g style="fill:rgb(0%,0%,100%);fill-opacity:1;">
  <use xlink:href="#glyph0-3" x="142.949219" y="91.241211"/>
</g>
<path style="fill:none;stroke-width:1.2;stroke-linecap:butt;stroke-linejoin:miter;stroke:rgb(0%,0%,100%);stroke-opacity:1;stroke-miterlimit:10;" d="M 174.726562 86.671875 L 179.574219 99.699219 "/>
<path style="fill:none;stroke-width:1.2;stroke-linecap:butt;stroke-linejoin:miter;stroke:rgb(0%,0%,0%);stroke-opacity:1;stroke-miterlimit:10;" d="M 179.574219 99.699219 L 184.417969 112.730469 "/>
<path style=" stroke:none;fill-rule:nonzero;fill:rgb(100%,100%,100%);fill-opacity:1;" d="M 166.726562 80.171875 L 183.726562 80.171875 L 183.726562 93.171875 L 166.726562 93.171875 Z M 166.726562 80.171875 "/>
<g style="fill:rgb(0%,0%,100%);fill-opacity:1;">
  <use xlink:href="#glyph0-3" x="166.726562" y="90.073242"/>
  <use xlink:href="#glyph0-4" x="174.709961" y="90.073242"/>
</g>
<path style="fill:none;stroke-width:1.2;stroke-linecap:butt;stroke-linejoin:miter;stroke:rgb(0%,0%,0%);stroke-opacity:1;stroke-miterlimit:10;" d="M 184.417969 112.730469 L 197.808594 116.464844 "/>
<path style="fill:none;stroke-width:1.2;stroke-linecap:butt;stroke-linejoin:miter;stroke:rgb(0%,0%,100%);stroke-opacity:1;stroke-miterlimit:10;" d="M 197.808594 116.464844 L 211.195312 120.203125 "/>
<path style="fill:none;stroke-width:1.2;stroke-linecap:butt;stroke-linejoin:miter;stroke:rgb(0%,0%,0%);stroke-opacity:1;stroke-miterlimit:10;" d="M 184.417969 112.730469 L 162.632812 130 "/>
<path style="fill:none;stroke-width:1.2;stroke-linecap:butt;stroke-linejoin:miter;stroke:rgb(0%,0%,0%);stroke-opacity:1;stroke-miterlimit:10;" d="M 178.175781 109.328125 L 160.746094 123.144531 "/>
<path style="fill:none;stroke-width:1.2;stroke-linecap:butt;stroke-linejoin:miter;stroke:rgb(0%,0%,100%);stroke-opacity:1;stroke-miterlimit:10;" d="M 211.195312 120.203125 L 214.652344 133.667969 "/>
<path style="fill:none;stroke-width:1.2;stroke-linecap:butt;stroke-linejoin:miter;stroke:rgb(0%,0%,0%);stroke-opacity:1;stroke-miterlimit:10;" d="M 214.652344 133.667969 L 218.109375 147.128906 "/>
<path style="fill:none;stroke-width:1.2;stroke-linecap:butt;stroke-linejoin:miter;stroke:rgb(0%,0%,0%);stroke-opacity:1;stroke-miterlimit:10;" d="M 231.058594 100.75 L 221.125 110.476562 "/>
<path style="fill:none;stroke-width:1.2;stroke-linecap:butt;stroke-linejoin:miter;stroke:rgb(0%,0%,100%);stroke-opacity:1;stroke-miterlimit:10;" d="M 221.125 110.476562 L 211.195312 120.203125 "/>
<path style=" stroke:none;fill-rule:nonzero;fill:rgb(100%,100%,100%);fill-opacity:1;" d="M 207.195312 113.703125 L 215.195312 113.703125 L 215.195312 126.703125 L 207.195312 126.703125 Z M 207.195312 113.703125 "/>
<g style="fill:rgb(0%,0%,100%);fill-opacity:1;">
  <use xlink:href="#glyph0-3" x="207.195312" y="123.604492"/>
</g>
<path style="fill:none;stroke-width:1.2;stroke-linecap:butt;stroke-linejoin:miter;stroke:rgb(0%,0%,0%);stroke-opacity:1;stroke-miterlimit:10;" d="M 218.109375 147.128906 L 244.886719 154.605469 "/>
<path style="fill:none;stroke-width:1.2;stroke-linecap:butt;stroke-linejoin:miter;stroke:rgb(0%,0%,0%);stroke-opacity:1;stroke-miterlimit:10;" d="M 244.886719 154.605469 L 248.347656 168.066406 "/>
<path style="fill:none;stroke-width:1.2;stroke-linecap:butt;stroke-linejoin:miter;stroke:rgb(100%,0%,0%);stroke-opacity:1;stroke-miterlimit:10;" d="M 248.347656 168.066406 L 251.804688 181.53125 "/>
<path style="fill:none;stroke-width:1.2;stroke-linecap:butt;stroke-linejoin:miter;stroke:rgb(0%,0%,0%);stroke-opacity:1;stroke-miterlimit:10;" d="M 244.886719 154.605469 L 264.75 135.152344 "/>
<path style=" stroke:none;fill-rule:nonzero;fill:rgb(100%,100%,100%);fill-opacity:1;" d="M 243.804688 175.03125 L 260.804688 175.03125 L 260.804688 188.03125 L 243.804688 188.03125 Z M 243.804688 175.03125 "/>
<g style="fill:rgb(100%,0%,0%);fill-opacity:1;">
  <use xlink:href="#glyph0-5" x="243.804688" y="184.932617"/>
  <use xlink:href="#glyph0-4" x="252.205078" y="184.932617"/>
</g>
<path style="fill:none;stroke-width:1.2;stroke-linecap:butt;stroke-linejoin:miter;stroke:rgb(0%,0%,0%);stroke-opacity:1;stroke-miterlimit:10;" d="M 264.75 135.152344 L 257.835938 108.226562 "/>
<path style="fill:none;stroke-width:1.2;stroke-linecap:butt;stroke-linejoin:miter;stroke:rgb(0%,0%,0%);stroke-opacity:1;stroke-miterlimit:10;" d="M 257.835938 108.226562 L 231.058594 100.75 "/>
<path style="fill:none;stroke-width:1.2;stroke-linecap:butt;stroke-linejoin:miter;stroke:rgb(0%,0%,0%);stroke-opacity:1;stroke-miterlimit:10;" d="M 162.632812 130 L 163.796875 157.773438 "/>
<path style="fill:none;stroke-width:1.2;stroke-linecap:butt;stroke-linejoin:miter;stroke:rgb(0%,0%,0%);stroke-opacity:1;stroke-miterlimit:10;" d="M 163.796875 157.773438 L 140.328125 172.671875 "/>
<path style="fill:none;stroke-width:1.2;stroke-linecap:butt;stroke-linejoin:miter;stroke:rgb(0%,0%,0%);stroke-opacity:1;stroke-miterlimit:10;" d="M 164.957031 164.789062 L 146.179688 176.707031 "/>
<path style="fill:none;stroke-width:1.2;stroke-linecap:butt;stroke-linejoin:miter;stroke:rgb(0%,0%,0%);stroke-opacity:1;stroke-miterlimit:10;" d="M 188.4375 170.652344 L 163.796875 157.773438 "/>
<path style="fill:none;stroke-width:1.2;stroke-linecap:butt;stroke-linejoin:miter;stroke:rgb(0%,0%,0%);stroke-opacity:1;stroke-miterlimit:10;" d="M 140.328125 172.671875 L 141.492188 200.449219 "/>
<path style="fill:none;stroke-width:1.2;stroke-linecap:butt;stroke-linejoin:miter;stroke:rgb(0%,0%,0%);stroke-opacity:1;stroke-miterlimit:10;" d="M 141.492188 200.449219 L 153.8125 206.886719 "/>
<path style="fill:none;stroke-width:1.2;stroke-linecap:butt;stroke-linejoin:miter;stroke:rgb(0%,0%,100%);stroke-opacity:1;stroke-miterlimit:10;" d="M 153.8125 206.886719 L 166.128906 213.328125 "/>
<path style="fill:none;stroke-width:1.2;stroke-linecap:butt;stroke-linejoin:miter;stroke:rgb(0%,0%,0%);stroke-opacity:1;stroke-miterlimit:10;" d="M 146.988281 195.941406 L 156.839844 201.089844 "/>
<path style="fill:none;stroke-width:1.2;stroke-linecap:butt;stroke-linejoin:miter;stroke:rgb(0%,0%,100%);stroke-opacity:1;stroke-miterlimit:10;" d="M 156.839844 201.089844 L 166.695312 206.242188 "/>
<path style="fill:none;stroke-width:1.2;stroke-linecap:butt;stroke-linejoin:miter;stroke:rgb(0%,0%,100%);stroke-opacity:1;stroke-miterlimit:10;" d="M 166.128906 213.328125 L 177.867188 205.878906 "/>
<path style="fill:none;stroke-width:1.2;stroke-linecap:butt;stroke-linejoin:miter;stroke:rgb(0%,0%,0%);stroke-opacity:1;stroke-miterlimit:10;" d="M 177.867188 205.878906 L 189.601562 198.429688 "/>
<path style=" stroke:none;fill-rule:nonzero;fill:rgb(100%,100%,100%);fill-opacity:1;" d="M 162.128906 206.828125 L 170.128906 206.828125 L 170.128906 219.828125 L 162.128906 219.828125 Z M 162.128906 206.828125 "/>
<g style="fill:rgb(0%,0%,100%);fill-opacity:1;">
  <use xlink:href="#glyph0-3" x="162.128906" y="216.729492"/>
</g>
<path style="fill:none;stroke-width:1.2;stroke-linecap:butt;stroke-linejoin:miter;stroke:rgb(0%,0%,0%);stroke-opacity:1;stroke-miterlimit:10;" d="M 189.601562 198.429688 L 188.4375 170.652344 "/>
<path style="fill:none;stroke-width:1.2;stroke-linecap:butt;stroke-linejoin:miter;stroke:rgb(0%,0%,0%);stroke-opacity:1;stroke-miterlimit:10;" d="M 182.949219 195.925781 L 182.015625 173.707031 "/>
</g>
</svg>

<svg xmlns="http://www.w3.org/2000/svg" xmlns:xlink="http://www.w3.org/1999/xlink" width="300pt" height="300pt" viewBox="0 0 300 300"><defs><symbol overflow="visible"><path d="M.547 1.938V-7.75h5.5v9.688zm.625-.61h4.266v-8.47H1.171zm0 0"/></symbol><symbol overflow="visible" id="a"><path d="M7.078-7.406v1.156c-.367-.344-.758-.598-1.172-.766-.406-.164-.843-.25-1.312-.25-.918 0-1.62.282-2.11.844-.48.555-.718 1.36-.718 2.422 0 1.055.238 1.86.718 2.422.49.562 1.192.844 2.11.844.468 0 .906-.082 1.312-.25.414-.164.805-.422 1.172-.766v1.125c-.375.262-.777.46-1.203.594-.418.124-.867.186-1.344.186-1.21 0-2.163-.367-2.858-1.11C.972-1.703.625-2.718.625-4c0-1.29.348-2.305 1.047-3.047.695-.75 1.648-1.125 2.86-1.125.476 0 .93.07 1.36.203.424.126.82.314 1.186.564zm0 0"/></symbol><symbol overflow="visible" id="b"><path d="M1.03-8.36h1V0h-1zm0 0"/></symbol><symbol overflow="visible" id="c"><path d="M1.078-8.016h1.47l3.546 6.704v-6.704h1.062V0H5.688L2.124-6.703V0H1.078zm0 0"/></symbol><symbol overflow="visible" id="d"><path d="M1.078-8.016h1.094v3.282H6.11v-3.282h1.077V0H6.11v-3.813H2.17V0H1.078zm0 0"/></symbol><symbol overflow="visible" id="e"><path d="M4.328-7.28c-.78 0-1.406.296-1.875.89-.46.585-.687 1.382-.687 2.39 0 1.012.226 1.813.687 2.406.47.586 1.094.875 1.875.875.79 0 1.414-.288 1.875-.874.457-.593.688-1.394.688-2.406 0-1.008-.23-1.805-.687-2.39-.46-.594-1.086-.89-1.875-.89zm0-.892c1.125 0 2.024.383 2.703 1.14C7.708-6.28 8.048-5.27 8.048-4c0 1.262-.34 2.273-1.016 3.03C6.353-.22 5.454.157 4.33.157S2.3-.22 1.625-.97c-.668-.75-1-1.757-1-3.03 0-1.27.332-2.28 1-3.03.676-.76 1.578-1.142 2.703-1.142zm0 0"/></symbol></defs><g><path fill="#fff" d="M0 0h300v300H0z"/><path d="M35.25 153.383l13.027-4.844" stroke-width="1.2" stroke="#0c0" stroke-miterlimit="10" fill="none"/><path d="M48.277 148.54l13.028-4.85" stroke-width="1.2" stroke="#000" stroke-miterlimit="10" fill="none"/><path d="M24.25 146.883h11v13h-11zm0 0" fill="#fff"/><g fill="#0c0"><use xlink:href="#a" x="24.25" y="156.784"/><use xlink:href="#b" x="31.701" y="156.784"/></g><path d="M61.305 143.69l4.636-27.41M68.22 142.043l3.706-21.93M82.727 161.41l-21.422-17.72M65.94 116.28l26.056-9.69M91.996 106.59l21.422 17.72M89.97 113.402l17.14 14.172M113.418 124.31l-4.633 27.41M113.418 124.31l26.06-9.693M108.785 151.72l-26.058 9.69M103.898 146.56l-20.843 7.752M139.477 114.617l3.738-13.39" stroke-width="1.2" stroke="#000" stroke-miterlimit="10" fill="none"/><path d="M143.215 101.227l3.734-13.387" stroke-width="1.2" stroke="#00f" stroke-miterlimit="10" fill="none"/><path d="M146.523 113.695l2.993-10.71" stroke-width="1.2" stroke="#000" stroke-miterlimit="10" fill="none"/><path d="M149.516 102.984l2.988-10.71" stroke-width="1.2" stroke="#00f" stroke-miterlimit="10" fill="none"/><path d="M162.633 130l-23.156-15.383" stroke-width="1.2" stroke="#000" stroke-miterlimit="10" fill="none"/><path d="M146.95 87.84l27.777-1.168" stroke-width="1.2" stroke="#00f" stroke-miterlimit="10" fill="none"/><path d="M142.95 81.34h8v13h-8zm0 0" fill="#fff"/><use xlink:href="#c" x="142.949" y="91.241" fill="#00f"/><path d="M174.727 86.672l4.847 13.027" stroke-width="1.2" stroke="#00f" stroke-miterlimit="10" fill="none"/><path d="M179.574 99.7l4.844 13.03" stroke-width="1.2" stroke="#000" stroke-miterlimit="10" fill="none"/><path d="M166.727 80.172h17v13h-17zm0 0" fill="#fff"/><g fill="#00f"><use xlink:href="#c" x="166.727" y="90.073"/><use xlink:href="#d" x="174.71" y="90.073"/></g><path d="M184.418 112.73l13.39 3.735" stroke-width="1.2" stroke="#000" stroke-miterlimit="10" fill="none"/><path d="M197.81 116.465l13.385 3.738" stroke-width="1.2" stroke="#00f" stroke-miterlimit="10" fill="none"/><path d="M184.418 112.73L162.633 130M178.176 109.328l-17.43 13.817" stroke-width="1.2" stroke="#000" stroke-miterlimit="10" fill="none"/><path d="M211.195 120.203l3.457 13.465" stroke-width="1.2" stroke="#00f" stroke-miterlimit="10" fill="none"/><path d="M214.652 133.668l3.457 13.46M231.06 100.75l-9.935 9.727" stroke-width="1.2" stroke="#000" stroke-miterlimit="10" fill="none"/><path d="M221.125 110.477l-9.93 9.726" stroke-width="1.2" stroke="#00f" stroke-miterlimit="10" fill="none"/><path d="M207.195 113.703h8v13h-8zm0 0" fill="#fff"/><use xlink:href="#c" x="207.195" y="123.604" fill="#00f"/><path d="M218.11 147.13l26.777 7.475M244.887 154.605l3.46 13.46" stroke-width="1.2" stroke="#000" stroke-miterlimit="10" fill="none"/><path d="M248.348 168.066l3.457 13.465" stroke-width="1.2" stroke="#f00" stroke-miterlimit="10" fill="none"/><path d="M244.887 154.605l19.863-19.453" stroke-width="1.2" stroke="#000" stroke-miterlimit="10" fill="none"/><path d="M243.805 175.03h17v13h-17zm0 0" fill="#fff"/><g fill="#f00"><use xlink:href="#e" x="243.805" y="184.933"/><use xlink:href="#d" x="252.205" y="184.933"/></g><path d="M264.75 135.152l-6.914-26.925M257.836 108.227l-26.777-7.477M162.633 130l1.164 27.773M163.797 157.773l-23.47 14.9M164.957 164.79l-18.777 11.917M188.438 170.652l-24.64-12.88M140.328 172.672l1.164 27.777M141.492 200.45l12.32 6.437" stroke-width="1.2" stroke="#000" stroke-miterlimit="10" fill="none"/><path d="M153.813 206.887l12.316 6.44" stroke-width="1.2" stroke="#00f" stroke-miterlimit="10" fill="none"/><path d="M146.988 195.94l9.852 5.15" stroke-width="1.2" stroke="#000" stroke-miterlimit="10" fill="none"/><path d="M156.84 201.09l9.855 5.152M166.13 213.328l11.737-7.45" stroke-width="1.2" stroke="#00f" stroke-miterlimit="10" fill="none"/><path d="M177.867 205.88l11.735-7.45" stroke-width="1.2" stroke="#000" stroke-miterlimit="10" fill="none"/><path d="M162.13 206.828h8v13h-8zm0 0" fill="#fff"/><use xlink:href="#c" x="162.129" y="216.729" fill="#00f"/><path d="M189.602 198.43l-1.165-27.778M182.95 195.926l-.934-22.22" stroke-width="1.2" stroke="#000" stroke-miterlimit="10" fill="none"/></g></svg>
